outputs/icons/navigation/drop_down_circle_round.svg

<svg xmlns="http://www.w3.org/2000/svg" width="1200" height="1200" fill="none"><g clip-path="url(#a)"><path fill="#000" d="M600 100c-276 0-500 224-500 500s224 500 500 500 500-224 500-500-224-500-500-500m-17.5 632.5L443 593c-16-16-5-43 17.5-43H740c22.5 0 33.5 27 17.5 42.5L618 732c-10 10-26 10-35.5.5"/></g><defs><clipPath id="a"><path fill="#fff" d="M0 0h1200v1200H0z"/></clipPath></defs></svg>

<svg width="1200" height="1200" viewBox="0 0 1200 1200" fill="none" xmlns="http://www.w3.org/2000/svg"><g clip-path="url(#clip0_225_2877)"><path d="M600 100C324 100 100 324 100 600C100 876 324 1100 600 1100C876 1100 1100 876 1100 600C1100 324 876 100 600 100ZM582.5 732.5L443 593C427 577 438 550 460.5 550H740C762.5 550 773.5 577 757.5 592.5L618 732C608 742 592 742 582.5 732.5Z" fill="#1D1E23"/></g><defs><clipPath id="clip0_225_2877"><path width="24" fill="white" d="M0 0H1200V1200H0V0z"/></clipPath></defs></svg>
